src/lib/packages/icons/src/assets/filled/rotate.svg

<svg width="24" height="24" viewBox="0 0 24 24" fill="none" xmlns="http://www.w3.org/2000/svg">
<path d="M22 4V9C22 9.552 21.553 10 21 10H16C15.447 10 15 9.552 15 9C15 8.448 15.447 8 16 8H18.9099C17.5029 5.565 14.887 4 12 4C7.911 4 4.49496 7.05591 4.05396 11.1079C3.99796 11.6199 3.56504 12 3.06104 12C3.02504 12 2.9889 11.9979 2.9519 11.9939C2.4029 11.9339 2.00692 11.4411 2.06592 10.8911C2.61892 5.82211 6.88898 1.99902 12.001 1.99902C15.204 1.99902 18.148 3.53408 20.001 6.00708V4C20.001 3.448 20.448 3 21.001 3C21.554 3 22 3.448 22 4ZM21.0491 12.0061C20.4881 11.9471 20.006 12.3431 19.946 12.8921C19.505 16.9451 16.089 20 12 20C9.113 20 6.49709 18.435 5.09009 16H8C8.553 16 9 15.552 9 15C9 14.448 8.553 14 8 14H3C2.447 14 2 14.448 2 15V20C2 20.552 2.447 21 3 21C3.553 21 4 20.552 4 20V17.9919C5.853 20.4649 8.797 22 12 22C17.111 22 21.3821 18.1769 21.9351 13.1079C21.9941 12.5589 21.5981 12.0661 21.0491 12.0061Z" fill="currentColor"/>
</svg>

<svg xmlns="http://www.w3.org/2000/svg" width="24" height="24" fill="none"><path fill="currentColor" d="M22 4v5a1 1 0 0 1-1 1h-5a1 1 0 1 1 0-2h2.91A7.993 7.993 0 0 0 12 4a7.971 7.971 0 0 0-7.946 7.108 1 1 0 0 1-1.988-.217A9.97 9.97 0 0 1 12 2c3.203 0 6.147 1.535 8 4.008V4a1 1 0 1 1 2 0Zm-.95 8.006a.995.995 0 0 0-1.104.886A7.97 7.97 0 0 1 12 20a7.993 7.993 0 0 1-6.91-4H8a1 1 0 1 0 0-2H3a1 1 0 0 0-1 1v5a1 1 0 1 0 2 0v-2.008A10.006 10.006 0 0 0 12 22a9.971 9.971 0 0 0 9.935-8.892 1 1 0 0 0-.886-1.102Z"/></svg>
